assets/about/ps.svg

<svg width="101" height="100" viewBox="0 0 101 100" fill="none" xmlns="http://www.w3.org/2000/svg">
<g clip-path="url(#clip0_158_1392)">
<path d="M100.855 99.99H0.855469V0H100.855V99.99Z" fill="#041D34"/>
<path d="M25.3799 71.232V33.5347H41.3678C48.678 33.5347 53.3638 40.2617 53.3638 46.0636C53.3638 52.9112 48.1652 58.5925 41.6293 58.5925H32.7102V71.232H25.3799ZM32.7102 52.1269H41.2069C43.7811 52.1269 45.9329 49.7338 45.9329 46.0234C45.9128 42.876 44.0023 39.9298 40.8852 39.9298H32.7102V52.1269Z" fill="#4A99CD"/>
<path d="M68.2865 71.7649C63.7222 71.8074 59.2804 70.289 55.6973 67.4612L58.3519 63.057C60.0512 64.2536 63.9627 66.7171 68.1256 66.7171C70.8204 66.7171 72.6907 65.5909 72.6907 63.6402C72.6907 61.247 68.7491 60.4728 66.5872 59.8695C64.7772 59.3767 56.6525 58.2304 56.6525 52.1168C56.6525 46.2244 61.7807 42.9263 67.5927 42.9263C73.6963 42.9263 76.9542 45.4099 78.4826 46.7573L75.6168 50.9906C74.199 49.9851 71.0517 47.974 67.5424 47.974C64.9582 47.974 63.289 49.0801 63.289 51.1113C63.289 53.6452 67.7335 54.3692 68.7591 54.6105C70.6696 55.1032 79.5384 56.4607 79.5384 62.9967C79.5384 70.6789 71.7556 71.7649 68.2865 71.7649Z" fill="#4A99CD"/>
</g>
<defs>
<clipPath id="clip0_158_1392">
<rect width="100" height="100" fill="white" transform="translate(0.855469)"/>
</clipPath>
</defs>
</svg>

<svg xmlns="http://www.w3.org/2000/svg" width="101" height="100" fill="none" xmlns:v="https://vecta.io/nano"><g clip-path="url(#A)"><path d="M100.855 99.99h-100V0h100v99.99z" fill="#041d34"/><g fill="#4a99cd"><path d="M25.38 71.232V33.535h15.988c7.31 0 11.996 6.727 11.996 12.529 0 6.848-5.199 12.529-11.734 12.529h-8.92v12.639h-7.33zm7.33-19.105h8.497c2.574 0 4.726-2.393 4.726-6.103-.02-3.147-1.931-6.094-5.048-6.094H32.71v12.197zm35.577 19.638a20.02 20.02 0 0 1-12.589-4.304l2.655-4.404c1.699 1.197 5.611 3.66 9.774 3.66 2.695 0 4.565-1.126 4.565-3.077 0-2.393-3.942-3.167-6.104-3.771-1.81-.493-9.935-1.639-9.935-7.753 0-5.892 5.128-9.19 10.94-9.19 6.104 0 9.362 2.484 10.89 3.831l-2.866 4.233c-1.418-1.005-4.565-3.017-8.074-3.017-2.584 0-4.253 1.106-4.253 3.137 0 2.534 4.445 3.258 5.47 3.499 1.91.493 10.779 1.85 10.779 8.386 0 7.682-7.783 8.768-11.252 8.768z"/></g></g><defs><clipPath id="A"><path fill="#fff" transform="translate(.855)" d="M0 0h100v100H0z"/></clipPath></defs></svg>
